icons/glyphs/glyph-spraycan.svg

<?xml version="1.0" encoding="UTF-8" standalone="no"?><svg height="22" viewBox="0 0 5.8208332 5.8208335" width="22" xmlns="http://www.w3.org/2000/svg"><sodipodi:namedview/><metadata><rdf:RDF><cc:Work><dc:format>image/svg+xml</dc:format><dc:type/><dc:title/></cc:Work></rdf:RDF></metadata><path d="m1.3907974.00000004a.15894761.15894761 0 0 0 -.1590392.15903917.15894761.15894761 0 0 0  .1590392.15850902.15894761.15894761 0 0 0  .1590392-.15850902.15894761.15894761 0 0 0 -.1590392-.15903917zm.4946118.28945128a.15894761.15894761 0 0 0 -.158509.15903917.15894761.15894761 0 0 0  .158509.15903916.15894761.15894761 0 0 0  .1590392-.15903916.15894761.15894761 0 0 0 -.1590392-.15903917zm-.5041541.24226966a.15894761.15894761 0 0 0 -.1590392.15903916.15894761.15894761 0 0 0  .1590392.15850904.15894761.15894761 0 0 0  .158509-.15850904.15894761.15894761 0 0 0 -.158509-.15903916zm.9780908.024386a.15894761.15894761 0 0 0 -.1479064.1579789.15894761.15894761 0 0 0  .1590391.15903917.15894761.15894761 0 0 0  .1590392-.15903917.15894761.15894761 0 0 0 -.1590392-.15797889.15894761.15894761 0 0 0 -.011133-.00000001zm.6138911.0885318v.46068342c-.5568738.0559306-.9807197.3583231-1.0215615.7283994h-.2507517v3.9871117h2.9061758v-3.9871117h-.2491615c-.0413263-.370096-.4661291-.6722985-1.0231518-.7278692v-.4612136zm-1.0973701.17706361a.15894761.15894761 0 0 0 -.1590392.15903916.15894761.15894761 0 0 0  .1590392.15903915.15894761.15894761 0 0 0  .1590391-.15903915.15894761.15894761 0 0 0 -.1590391-.15903916zm-.5030939.24651071a.15894761.15894761 0 0 0 -.1590392.1590391.15894761.15894761 0 0 0  .1590392.1590392.15894761.15894761 0 0 0  .1590391-.1590392.15894761.15894761 0 0 0 -.1590391-.1590391z" fill="#d0d0d0" stroke-linecap="round" stroke-linejoin="round" stroke-width=".114288"/></svg>

<?xml version="1.0" encoding="UTF-8" standalone="no"?>
<!-- Created with Inkscape (http://www.inkscape.org/) -->

<svg
   xmlns:dc="http://purl.org/dc/elements/1.1/"
   xmlns:cc="http://creativecommons.org/ns#"
   xmlns:rdf="http://www.w3.org/1999/02/22-rdf-syntax-ns#"
   xmlns:svg="http://www.w3.org/2000/svg"
   xmlns="http://www.w3.org/2000/svg"
   xmlns:sodipodi="http://sodipodi.sourceforge.net/DTD/sodipodi-0.dtd"
   xmlns:inkscape="http://www.inkscape.org/namespaces/inkscape"
   width="22"
   height="22"
   viewBox="0 0 5.8208332 5.8208335"
   version="1.1"
   id="svg8"
   inkscape:version="0.92+devel 15724 custom"
   sodipodi:docname="glyph-spraycan.svg">
  <defs
     id="defs2" />
  <sodipodi:namedview
     id="base"
     pagecolor="#002466"
     bordercolor="#ffffff"
     borderopacity="0.37647059"
     inkscape:pageopacity="1"
     inkscape:pageshadow="2"
     inkscape:zoom="26.323657"
     inkscape:cx="11"
     inkscape:cy="11"
     inkscape:document-units="px"
     inkscape:current-layer="svg8"
     inkscape:document-rotation="0"
     showgrid="false"
     inkscape:showpageshadow="false"
     borderlayer="true"
     units="px"
     inkscape:window-width="1920"
     inkscape:window-height="1051"
     inkscape:window-x="0"
     inkscape:window-y="0"
     inkscape:window-maximized="1"
     inkscape:snap-bbox="true" />
  <metadata
     id="metadata5">
    <rdf:RDF>
      <cc:Work
         rdf:about="">
        <dc:format>image/svg+xml</dc:format>
        <dc:type
           rdf:resource="http://purl.org/dc/dcmitype/StillImage" />
        <dc:title></dc:title>
      </cc:Work>
    </rdf:RDF>
  </metadata>
  <path
     style="fill:#d0d0d0;stroke-width:0.11428824;stroke-linecap:round;stroke-linejoin:round"
     d="M 1.3907974,3.8201774e-8 A 0.15894761,0.15894761 0 0 0 1.2317582,0.15903921 0.15894761,0.15894761 0 0 0 1.3907974,0.31754823 0.15894761,0.15894761 0 0 0 1.5498366,0.15903921 0.15894761,0.15894761 0 0 0 1.3907974,3.8201774e-8 Z M 1.8854092,0.28945132 A 0.15894761,0.15894761 0 0 0 1.7269002,0.44849049 0.15894761,0.15894761 0 0 0 1.8854092,0.60752965 0.15894761,0.15894761 0 0 0 2.0444484,0.44849049 0.15894761,0.15894761 0 0 0 1.8854092,0.28945132 Z M 1.3812551,0.53172098 A 0.15894761,0.15894761 0 0 0 1.2222159,0.69076014 0.15894761,0.15894761 0 0 0 1.3812551,0.84926918 0.15894761,0.15894761 0 0 0 1.5397641,0.69076014 0.15894761,0.15894761 0 0 0 1.3812551,0.53172098 Z m 0.9780908,0.024386 A 0.15894761,0.15894761 0 0 0 2.2114395,0.71408588 0.15894761,0.15894761 0 0 0 2.3704786,0.87312505 0.15894761,0.15894761 0 0 0 2.5295178,0.71408588 0.15894761,0.15894761 0 0 0 2.3704786,0.55610699 a 0.15894761,0.15894761 0 0 0 -0.011133,-10e-9 z M 2.973237,0.64463878 V 1.1053222 C 2.4163632,1.1612528 1.9925173,1.4636453 1.9516755,1.8337216 H 1.7009238 V 5.8208333 H 4.6070996 V 1.8337216 H 4.3579381 C 4.3166118,1.4636256 3.891809,1.1614231 3.3347863,1.1058524 V 0.6446388 Z M 1.8758669,0.82170239 A 0.15894761,0.15894761 0 0 0 1.7168277,0.98074155 0.15894761,0.15894761 0 0 0 1.8758669,1.1397807 0.15894761,0.15894761 0 0 0 2.034906,0.98074155 0.15894761,0.15894761 0 0 0 1.8758669,0.82170239 Z M 1.372773,1.0682131 A 0.15894761,0.15894761 0 0 0 1.2137338,1.2272522 0.15894761,0.15894761 0 0 0 1.372773,1.3862914 0.15894761,0.15894761 0 0 0 1.5318121,1.2272522 0.15894761,0.15894761 0 0 0 1.372773,1.0682131 Z"
     id="rect4264"
     inkscape:connector-curvature="0"
     inkscape:label="#" />
</svg>
